src/icons/solid/filter.svg

<svg width="20" height="20" viewBox="0 0 20 20" fill="none" xmlns="http://www.w3.org/2000/svg">
<path fill-rule="evenodd" clip-rule="evenodd" d="M3 3C3 2.44772 3.44772 2 4 2H16C16.5523 2 17 2.44772 17 3V6C17 6.26522 16.8946 6.51957 16.7071 6.70711L12 11.4142V15C12 15.2652 11.8946 15.5196 11.7071 15.7071L9.70711 17.7071C9.42111 17.9931 8.99099 18.0787 8.61732 17.9239C8.24364 17.7691 8 17.4045 8 17V11.4142L3.29289 6.70711C3.10536 6.51957 3 6.26522 3 6V3Z" fill="#4A5568"/>
</svg>

<svg xmlns="http://www.w3.org/2000/svg" viewBox="0 0 20 20" fill="currentColor">
  <path fill-rule="evenodd" d="M3 3a1 1 0 011-1h12a1 1 0 011 1v3a1 1 0 01-.293.707L12 11.414V15a1 1 0 01-.293.707l-2 2A1 1 0 018 17v-5.586L3.293 6.707A1 1 0 013 6V3z" clip-rule="evenodd"/>
</svg>
